app/assets/img/ic-directions-gray.svg

<svg width="34" height="34" viewBox="0 0 34 34" fill="none" xmlns="http://www.w3.org/2000/svg">
<path fill-rule="evenodd" clip-rule="evenodd" d="M33.0375 15.6875L18.0375 0.687452C17.3875 0.037451 16.3375 0.037451 15.6875 0.687452L0.687451 15.6875C0.037451 16.3375 0.037451 17.3875 0.687451 18.0375L15.6875 33.0375C16.3375 33.6875 17.3875 33.6875 18.0375 33.0375L33.0375 18.0375C33.6875 17.4041 33.6875 16.3541 33.0375 15.6875ZM29.4984 16.8625L16.8625 4.2265L4.2265 16.8625L16.8625 29.4984L29.4984 16.8625Z" fill="black" fill-opacity="0.38"/>
<path fill-rule="evenodd" clip-rule="evenodd" d="M10.6 21.4V15.2133C10.6 14.3626 11.301 13.6666 12.1578 13.6666H19.9473V9.79996L25.4 15.2133L19.9473 20.6266V16.76H13.7157V21.4H10.6Z" fill="black" fill-opacity="0.38"/>
</svg>

<svg fill="none" height="34" viewBox="0 0 34 34" width="34" xmlns="http://www.w3.org/2000/svg"><g clip-rule="evenodd" fill="#000" fill-opacity=".38" fill-rule="evenodd"><path d="m33.0375 15.6875-15-15.000048c-.65-.650001-1.7-.650001-2.35 0l-15.000049 15.000048c-.65.65-.65 1.7 0 2.35l15.000049 15c.65.65 1.7.65 2.35 0l15-15c.65-.6334.65-1.6834 0-2.35zm-3.5391 1.175-12.6359-12.636-12.636 12.636 12.636 12.6359z"/><path d="m10.6 21.4v-6.1867c0-.8507.701-1.5467 1.5578-1.5467h7.7895v-3.86664l5.4527 5.41334-5.4527 5.4133v-3.8666h-6.2316v4.64z"/></g></svg>
